src/assets/img/icons/payment_system/cards.svg

<svg width="50" height="16" viewBox="0 0 50 16" fill="none" xmlns="http://www.w3.org/2000/svg">
<g clip-path="url(#clip0_355_842)">
<path d="M21.423 15.7692H17.4182L19.9231 0.280762H23.9277L21.423 15.7692Z" fill="#333D48"/>
<path d="M35.9409 0.659404C35.151 0.346017 33.8981 0 32.3489 0C28.394 0 25.609 2.10895 25.5919 5.12412C25.559 7.3487 27.5859 8.58429 29.1018 9.32603C30.6512 10.084 31.1779 10.5787 31.1779 11.2543C31.1621 12.2919 29.9259 12.7702 28.7728 12.7702C27.1739 12.7702 26.3172 12.5236 25.0153 11.9463L24.4879 11.6989L23.9275 15.1757C24.8668 15.6036 26.5973 15.9834 28.394 16C32.5961 16 35.3318 13.9237 35.3643 10.7105C35.3802 8.94739 34.31 7.59639 32.0026 6.49242C30.6019 5.78374 29.7441 5.30589 29.7441 4.58078C29.7605 3.9216 30.4696 3.24643 32.0508 3.24643C33.3528 3.21336 34.3093 3.52631 35.034 3.83947L35.3962 4.00394L35.9409 0.659404Z" fill="#333D48"/>
<path d="M41.2636 10.2822C41.5934 9.39239 42.8625 5.94865 42.8625 5.94865C42.8458 5.98172 43.1916 5.04243 43.3894 4.46581L43.6693 5.80039C43.6693 5.80039 44.4277 9.5078 44.5923 10.2822C43.9665 10.2822 42.0546 10.2822 41.2636 10.2822ZM46.207 0.280762H43.1093C42.154 0.280762 41.4283 0.560641 41.0161 1.56584L35.0675 15.769H39.2696C39.2696 15.769 39.9614 13.8573 40.1101 13.4456C40.5711 13.4456 44.6589 13.4456 45.252 13.4456C45.3669 13.9894 45.7298 15.769 45.7298 15.769H49.4379L46.207 0.280762Z" fill="#333D48"/>
<path d="M14.0732 0.280762L10.1512 10.8424L9.72263 8.70037C8.99753 6.22875 6.72346 3.5434 4.18571 2.20817L7.77815 15.7528H12.0131L18.308 0.280762H14.0732Z" fill="#333D48"/>
<path d="M6.50928 0.280762H0.0659181L0 0.59371C5.02622 1.87901 8.35499 4.97718 9.72263 8.70102L8.32192 1.58271C8.09132 0.593491 7.38264 0.313392 6.50928 0.280762Z" fill="#212B36"/>
</g>
<defs>
<clipPath id="clip0_355_842">
<rect width="50" height="16" fill="white"/>
</clipPath>
</defs>
</svg>

<svg width="50" height="16" fill="none" xmlns="http://www.w3.org/2000/svg"><g clip-path="url(#a)"><path d="M21.423 15.77h-4.005L19.923.28h4.005l-2.505 15.49ZM35.94.66A9.87 9.87 0 0 0 32.35 0c-3.955 0-6.74 2.109-6.757 5.124-.033 2.225 1.994 3.46 3.51 4.202 1.55.758 2.076 1.253 2.076 1.928-.016 1.038-1.252 1.516-2.405 1.516-1.6 0-2.456-.246-3.758-.824l-.527-.247-.56 3.477c.939.428 2.67.807 4.466.824 4.202 0 6.938-2.076 6.97-5.29.016-1.763-1.054-3.114-3.361-4.218-1.401-.708-2.259-1.186-2.259-1.911.017-.66.726-1.335 2.307-1.335a6.804 6.804 0 0 1 2.983.593l.362.165.545-3.345ZM41.264 10.282c.33-.89 1.598-4.333 1.598-4.333-.016.033.33-.907.527-1.483l.28 1.334s.759 3.708.923 4.482h-3.328ZM46.207.281h-3.098c-.955 0-1.68.28-2.093 1.285l-5.948 14.203h4.202l.84-2.323h5.142c.115.543.478 2.323.478 2.323h3.708L46.207.281ZM14.073.28l-3.922 10.562L9.723 8.7c-.725-2.471-3-5.157-5.537-6.492l3.592 13.545h4.235L18.308.28h-4.235Z" fill="#333D48"/><path d="M6.51.28H.065L0 .595C5.026 1.879 8.355 4.977 9.723 8.7L8.322 1.583C8.092.593 7.382.313 6.509.28Z" fill="#212B36"/></g><defs><clipPath id="a"><path fill="#fff" d="M0 0h50v16H0z"/></clipPath></defs></svg>
